src/icons/file-objective-cpp.svg

<?xml version="1.0" encoding="UTF-8" standalone="no"?>
<svg
   version="1.2"
   viewBox="0 0 16 16"
   width="16"
   height="16"
   id="svg1"
   sodipodi:docname="file-cpp.svg"
   inkscape:version="1.4 (e7c3feb100, 2024-10-09)"
   xmlns:inkscape="http://www.inkscape.org/namespaces/inkscape"
   xmlns:sodipodi="http://sodipodi.sourceforge.net/DTD/sodipodi-0.dtd"
   xmlns="http://www.w3.org/2000/svg"
   xmlns:svg="http://www.w3.org/2000/svg">
  <defs
     id="defs1" />
  <sodipodi:namedview
     id="namedview1"
     pagecolor="#505050"
     bordercolor="#eeeeee"
     borderopacity="1"
     inkscape:showpageshadow="0"
     inkscape:pageopacity="0"
     inkscape:pagecheckerboard="0"
     inkscape:deskcolor="#505050"
     inkscape:zoom="37.75"
     inkscape:cx="7.986755"
     inkscape:cy="8"
     inkscape:window-width="1316"
     inkscape:window-height="755"
     inkscape:window-x="20"
     inkscape:window-y="20"
     inkscape:window-maximized="0"
     inkscape:current-layer="svg1" />
  <title
     id="title1">file-c</title>
  <style
     id="style1">
		.s0 { fill: #8CC162 }
		.s1 { fill: #000000 }
	</style>
  <g
     id="Layer 1">
    <path
       id="path1"
       class="s0"
       d="M 8 0.30078125 C 7.8666667 0.36744792 7.7 0.40039063 7.5 0.40039062 C 7.1 0.50039063 6.7996094 0.69960935 6.0996094 1.0996094 L 3 2.9003906 C 2.3 3.3003906 1.8992187 3.5007813 1.6992188 3.8007812 C 1.432552 4.067448 1.2658854 4.3658854 1.1992188 4.6992188 C 0.9992187 5.0992187 1 5.5007813 1 6.3007812 L 1 9.6992188 C 1 10.499219 0.99960935 11.000391 1.0996094 11.400391 C 1.2329427 11.733724 1.432552 12.034114 1.6992188 12.300781 C 1.8992187 12.600781 2.3 12.799219 3 13.199219 L 6 14.900391 C 6.7 15.300391 7.1003906 15.499609 7.4003906 15.599609 C 7.8003906 15.666279 8.1666667 15.666279 8.5 15.599609 C 8.9 15.499609 9.2003906 15.300391 9.9003906 14.900391 L 13 13.099609 C 13.7 12.699609 14.100781 12.499219 14.300781 12.199219 C 14.567448 11.932552 14.734114 11.634114 14.800781 11.300781 C 15.000781 10.900781 15 10.499219 15 9.6992188 L 15 6.3007812 C 15 5.5007813 15.000391 4.9996094 14.900391 4.5996094 C 14.767058 4.2662761 14.567448 3.9658853 14.300781 3.6992188 C 14.100781 3.3992186 13.7 3.2007813 13 2.8007812 L 10 1.0996094 C 9.3 0.69960935 8.8996094 0.50039063 8.5996094 0.40039062 C 8.3996094 0.40039062 8.2 0.36744792 8 0.30078125 z M 11.642578 3.9667969 C 12.109245 3.9667969 12.341797 4.335026 12.341797 5.0683594 L 12.341797 5.2675781 L 12.541016 5.2675781 C 13.274349 5.2675781 13.642578 5.5001302 13.642578 5.9667969 C 13.642578 6.4334635 13.274349 6.6679688 12.541016 6.6679688 L 12.341797 6.6679688 L 12.341797 6.9667969 C 12.341797 7.6334635 12.109245 7.9667969 11.642578 7.9667969 C 12.109245 7.9667969 12.341797 8.335026 12.341797 9.0683594 L 12.341797 9.2675781 L 12.541016 9.2675781 C 13.274349 9.2675781 13.642578 9.5001302 13.642578 9.9667969 C 13.642578 10.433463 13.274349 10.667969 12.541016 10.667969 L 12.341797 10.667969 L 12.341797 10.966797 C 12.341797 11.633463 12.109245 11.966797 11.642578 11.966797 C 11.175911 11.966797 10.941406 11.633463 10.941406 10.966797 L 10.941406 10.667969 L 10.642578 10.667969 C 9.9759114 10.667969 9.6425781 10.433463 9.6425781 9.9667969 C 9.6425781 9.5001302 9.9759114 9.2675781 10.642578 9.2675781 L 10.941406 9.2675781 L 10.941406 9.0683594 C 10.941406 8.335026 11.175911 7.9667969 11.642578 7.9667969 C 11.175911 7.9667969 10.941406 7.6334635 10.941406 6.9667969 L 10.941406 6.6679688 L 10.642578 6.6679688 C 9.9759113 6.6679688 9.6425781 6.4334635 9.6425781 5.9667969 C 9.6425781 5.5001302 9.9759113 5.2675781 10.642578 5.2675781 L 10.941406 5.2675781 L 10.941406 5.0683594 C 10.941406 4.335026 11.175911 3.9667969 11.642578 3.9667969 z M 5.8691406 4.4941406 C 6.2024739 4.4941406 6.5028645 4.5600264 6.7695312 4.6933594 C 7.1028645 4.7600264 7.3683594 4.8608073 7.5683594 4.9941406 C 7.835026 5.1941406 8.0346352 5.39375 8.1679688 5.59375 C 8.301302 5.79375 8.3691406 6.0282553 8.3691406 6.2949219 C 8.3691406 6.4949219 8.2683594 6.6615886 8.0683594 6.7949219 C 7.935026 6.9282553 7.7683594 6.9941406 7.5683594 6.9941406 C 7.3016927 6.9941406 7.135026 6.9611982 7.0683594 6.8945312 C 6.935026 6.7611979 6.8361979 6.627474 6.7695312 6.4941406 C 6.7695312 6.3608073 6.7346357 6.2600261 6.6679688 6.1933594 L 6.3691406 5.8945312 C 6.2358072 5.8278643 6.0691406 5.7949219 5.8691406 5.7949219 C 5.6024739 5.7949219 5.3679687 5.8608076 5.1679688 5.9941406 C 4.901302 6.127474 4.7016927 6.3600261 4.5683594 6.6933594 C 4.435026 7.0266928 4.3691406 7.4608073 4.3691406 7.9941406 C 4.3691406 8.527474 4.4350264 8.9615886 4.5683594 9.2949219 C 4.7016927 9.6282553 4.901302 9.8608073 5.1679688 9.9941406 C 5.3679688 10.127474 5.6024739 10.193359 5.8691406 10.193359 C 6.0691406 10.193359 6.2358072 10.16042 6.3691406 10.09375 C 6.4358076 10.02708 6.5346353 9.961198 6.6679688 9.8945312 C 6.7346357 9.761198 6.7695312 9.627474 6.7695312 9.4941406 C 6.8361982 9.3608073 6.935026 9.2600261 7.0683594 9.1933594 C 7.1350264 9.0600261 7.3016927 8.9941406 7.5683594 8.9941406 C 7.7683594 8.9941406 7.935026 9.0600264 8.0683594 9.1933594 C 8.2683594 9.3266928 8.3691406 9.5282553 8.3691406 9.7949219 C 8.3691406 9.9949219 8.3013016 10.194531 8.1679688 10.394531 C 8.0346354 10.661197 7.835026 10.860807 7.5683594 10.994141 C 7.3683594 11.127474 7.1028647 11.261197 6.7695312 11.394531 C 6.5028645 11.461201 6.2024739 11.494141 5.8691406 11.494141 C 5.4691406 11.494141 5.0679687 11.394531 4.6679688 11.394531 C 4.3346354 11.261197 4.001302 11.061588 3.6679688 10.794922 C 3.3346353 10.528255 3.0691406 10.160026 2.8691406 9.6933594 C 2.6691406 9.2266928 2.5683594 8.6608073 2.5683594 7.9941406 C 2.5683594 7.327474 2.6691406 6.7615886 2.8691406 6.2949219 C 3.0691406 5.8282553 3.3346354 5.4949219 3.6679688 5.2949219 C 4.001302 5.0282553 4.3346353 4.8266928 4.6679688 4.6933594 C 5.0679688 4.5600261 5.4691406 4.4941406 5.8691406 4.4941406 z " />
  </g>
</svg>

<svg xmlns="http://www.w3.org/2000/svg" width="16" height="16" version="1.2"><path d="M8 .3q-.2.1-.5.1c-.4.1-.7.3-1.4.7L3 2.9c-.7.4-1.1.6-1.3.9a1.74 1.74 0 0 0-.5.9c-.2.4-.2.8-.2 1.6v3.4c0 .8 0 1.3.1 1.7q.2.501.6.9c.2.3.6.5 1.3.9l3 1.7c.7.4 1.1.6 1.4.7q.6.099 1.1 0c.4-.1.7-.3 1.4-.7l3.1-1.8c.7-.4 1.1-.6 1.3-.9q.4-.4.5-.9c.2-.4.2-.8.2-1.6V6.3c0-.8 0-1.3-.1-1.7a2.7 2.7 0 0 0-.6-.9c-.2-.3-.6-.5-1.3-.9l-3-1.7C9.3.7 8.9.5 8.6.4Q8.3.4 8 .3m3.643 3.667q.699 0 .699 1.101v.2h.199q1.1 0 1.102.699-.001.7-1.102.701h-.2v.299q0 1-.698 1 .699 0 .699 1.101v.2h.199q1.1 0 1.102.699-.001.7-1.102.701h-.2v.299q0 1-.698 1-.701 0-.702-1v-.299h-.298q-1-.001-1-.701t1-.7h.298v-.199q0-1.1.702-1.101-.701 0-.702-1v-.299h-.298q-1-.001-1-.701t1-.7h.298v-.199q0-1.1.702-1.101m-5.774.527q.5 0 .9.2.5.1.8.3.4.3.599.6.2.3.201.7 0 .301-.3.5-.2.2-.5.2-.4 0-.5-.1a1.6 1.6 0 0 1-.3-.4q0-.2-.101-.3l-.299-.3q-.2-.1-.5-.1-.4 0-.701.2-.4.2-.6.7t-.199 1.3.2 1.3.599.7q.3.2.701.2.3 0 .5-.1.1-.1.299-.2a.9.9 0 0 0 .102-.4.65.65 0 0 1 .298-.3q.1-.2.5-.2.3 0 .5.2.3.2.301.6 0 .3-.201.6a1.3 1.3 0 0 1-.6.6q-.3.2-.798.4-.401.1-.9.1c-.4 0-.802-.1-1.202-.1a4 4 0 0 1-1-.6q-.5-.4-.799-1.1t-.3-1.7.3-1.7.799-1a4 4 0 0 1 1-.6q.6-.2 1.201-.2" style="fill:#8cc162"/></svg>
